X: 24854
T: Maggie's Pancakes
R: reel
M: 4/4
K: Bminor
|:fB~B2 fgfe|dB~B2 GBdB|cAAd AAec|AfdB ecAc|
dB~B2 fgfe|dB~B2 GBdB|cABc AcBc|efed Bcde:|
|:~f2dB GBdB|caec dB~B2|~f2dB GBdB|eaec Bcde|
fd~d2 fgfe|dB~B2 GBdB|cABc AcBc|efed Bcde:|

